X:1
T:Title
L:1/8
M:4/4
K:Ab
V:1 treble nm="Grand Piano"
V:1
 z4 z2[Q:1/4=100] C2 | F3 G A2 G2 | FGF=E F2 cB | A2 BA G2 AG | F6 FG | A3 G F2 EF | G3 F E2 DE | %7
 F3 E D2 ED | C6 FA | c3 d cBAG | B3 A G2 GA | B3 c BAGF | A3 G F2 C2 | F3 =E G2 F2 | A3 G B2 AB | %15
 c2 B2 A2 G2 | F6 z2 |] %17

